package/converter/svg/regular/memo-circle-check.svg

<svg xmlns="http://www.w3.org/2000/svg" viewBox="0 0 576 512"><!-- Font Awesome Pro 6.0.0-alpha2 by @fontawesome - https://fontawesome.com License - https://fontawesome.com/license (Commercial License) --><path d="M288 248C288 234.75 277.25 224 264 224H120C106.75 224 96 234.75 96 248S106.75 272 120 272H264C277.25 272 288 261.25 288 248ZM284.6 464H64C55.178 464 48 456.822 48 448V64C48 55.178 55.178 48 64 48H320C328.822 48 336 55.178 336 64V220.6C350.635 211.047 366.781 203.674 384 198.797V64C384 28.652 355.346 0 320 0H64C28.654 0 0 28.652 0 64V448C0 483.346 28.654 512 64 512H320C323.32 512 326.51 511.51 329.693 511.021C311.904 498.273 296.58 482.357 284.6 464ZM120 320C106.75 320 96 330.75 96 344S106.75 368 120 368H168C181.25 368 192 357.25 192 344S181.25 320 168 320H120ZM264 128H120C106.75 128 96 138.75 96 152S106.75 176 120 176H264C277.25 176 288 165.25 288 152S277.25 128 264 128ZM432.002 224C352.463 224 288 288.463 288 368S352.463 512 432.002 512C511.537 512 576 447.537 576 368S511.537 224 432.002 224ZM499.312 341.984L424.656 416.641C421.531 419.766 417.438 421.328 413.344 421.328S405.156 419.766 402.031 416.641L364.688 379.312C358.438 373.062 358.438 362.937 364.688 356.688S381.063 350.438 387.312 356.688L413.344 382.703L476.688 319.359C482.938 313.109 493.063 313.109 499.312 319.359S505.562 335.734 499.312 341.984Z"/></svg>

<svg xmlns="http://www.w3.org/2000/svg" viewBox="0 0 576 512"><!--! Font Awesome Pro 6.6.0 by @fontawesome - https://fontawesome.com License - https://fontawesome.com/license (Commercial License) Copyright 2024 Fonticons, Inc. --><path d="M64 48l256 0c8.8 0 16 7.2 16 16l0 156.5c14.6-9.5 30.8-17 48-21.8L384 64c0-35.3-28.7-64-64-64L64 0C28.7 0 0 28.7 0 64L0 448c0 35.3 28.7 64 64 64l256 0c3.3 0 6.6-.3 9.7-.7c-17.9-12.8-33.3-28.8-45.3-47.3L64 464c-8.8 0-16-7.2-16-16L48 64c0-8.8 7.2-16 16-16zm56 80c-13.3 0-24 10.7-24 24s10.7 24 24 24l144 0c13.3 0 24-10.7 24-24s-10.7-24-24-24l-144 0zm0 96c-13.3 0-24 10.7-24 24s10.7 24 24 24l144 0c13.3 0 24-10.7 24-24s-10.7-24-24-24l-144 0zm0 96c-13.3 0-24 10.7-24 24s10.7 24 24 24l48 0c13.3 0 24-10.7 24-24s-10.7-24-24-24l-48 0zm456 48a144 144 0 1 0 -288 0 144 144 0 1 0 288 0zm-76.7-43.3c6.2 6.2 6.2 16.4 0 22.6l-72 72c-6.2 6.2-16.4 6.2-22.6 0l-40-40c-6.2-6.2-6.2-16.4 0-22.6s16.4-6.2 22.6 0L416 385.4l60.7-60.7c6.2-6.2 16.4-6.2 22.6 0z"/></svg>
